X: 1
T:The Congress Jig  "Arranged by Terry Tully"
M:6/8
L:1/8
Q:80
C:Traditional Irish
S:Jig
K:HP
|: d|
{g}eA{d}A{g}ABd|
{g}eaf{a}ged|
{g}eA{d}A{g}Aed|  !
{g}B{d}G{e}G{g}Bd{c}d{g}eA{d}A{g}ABd|
{g}eaf{a}ged|
{g}B{d}c{G}c{g}ege|  !
{g}dB{d}G{g}A2:| |:
d|
{g}eag{ag}a2g|
{a}eag{a}ed{c}d|  !
{g}egd{g}ed{c}d|
{g}eaf{a}ged{g}eAg{ag}a2g|
{a}eaf{a}ged|  !
{g}B{d}c{G}c{g}ege|
{g}dB{d}G{g}A2:|
